!!!OTL: SANKT MICHEL DE BAUET EEN KLOSTER
!!!ARE: Europa, Mitteleuropa, Deutschland, Niederrhein, Niederkruechten
!!!SCT: E2088
!!!YEM: Copyright 1995, estate of Helmut Schaffrath.
**kern
*ICvox
*Ivox
*M4/4
*k[b-]
*F:
{4c
=1
4f
4f
4c
8d
8e
=2
2f
4f}
{4a
=3
4g
4f
8f
8d
4e
=4
2f
4r}
{4c
=5
4f
4f
4g
4g
=6
2a
8a
8g}
{4f
=7
4g
4g
8e
8d
4e
=8
2f
4r}
==
!!!AGN: geistlich, Heiligen - Lied, Legende
!!!ONB: ESAC (Essen Associative Code) Database: ERK3
!!!AMT: simple quadruple
!!!AIN: vox
!!!EED: Helmut Schaffrath
!!!EEV: 1.0
*-
